Newaita/actions/32/view-presentation.svg

<svg height="32" viewBox="0 0 32 32" width="32" xmlns="http://www.w3.org/2000/svg"><g fill="#424242"><path d="m5.953125 26.710938h19.847656c.363281 0 .660157.296874.660157.660156v1.324218c0 .367188-.296876.660157-.660157.660157h-19.847656c-.363281 0-.660156-.292969-.660156-.660157v-1.324218c0-.363282.296875-.660156.660156-.660156zm0 0"/><path d="m5.292969 2.894531c-1.464844 0-2.648438 1.183594-2.648438 2.648438v15.875c0 1.464843 1.183594 2.648437 2.648438 2.648437h21.167969c1.464843 0 2.644531-1.183594 2.644531-2.648437v-15.875c0-1.464844-1.179688-2.648438-2.644531-2.648438zm1.320312 2.648438h18.523438c.734375 0 1.324219.589843 1.324219 1.320312v13.230469c0 .734375-.589844 1.324219-1.324219 1.324219h-18.523438c-.730469 0-1.320312-.589844-1.320312-1.324219v-13.230469c0-.730469.589843-1.320312 1.320312-1.320312zm0 0"/><path d="m11.90625 24.726562h7.9375v1.324219h-7.9375zm0 0"/><path d="m13.890625 8.84375c-.363281.003906-.660156.300781-.660156.667969v7.9375c0 .535156.597656.851562 1.039062.558593l5.953125-3.972656c.398438-.261718.398438-.847656 0-1.109375l-5.953125-3.972656c-.109375-.074219-.242187-.113281-.378906-.109375zm0 0"/></g></svg>

<svg xmlns="http://www.w3.org/2000/svg" xmlns:xlink="http://www.w3.org/1999/xlink" width="32px" height="32px" viewBox="0 0 32 32" version="1.1">
<g id="surface1">
     <defs>
  <style id="current-color-scheme" type="text/css">
   .ColorScheme-Text { color:#424242; } .ColorScheme-Highlight { color:#eeeeee; }
  </style>
 </defs>
<path style="fill:currentColor" class="ColorScheme-Text" d="M 5.953125 26.710938 L 25.800781 26.710938 C 26.164062 26.710938 26.460938 27.007812 26.460938 27.371094 L 26.460938 28.695312 C 26.460938 29.0625 26.164062 29.355469 25.800781 29.355469 L 5.953125 29.355469 C 5.589844 29.355469 5.292969 29.0625 5.292969 28.695312 L 5.292969 27.371094 C 5.292969 27.007812 5.589844 26.710938 5.953125 26.710938 Z M 5.953125 26.710938 "/>
     <defs>
  <style id="current-color-scheme" type="text/css">
   .ColorScheme-Text { color:#424242; } .ColorScheme-Highlight { color:#eeeeee; }
  </style>
 </defs>
<path style="fill:currentColor" class="ColorScheme-Text" d="M 5.292969 2.894531 C 3.828125 2.894531 2.644531 4.078125 2.644531 5.542969 L 2.644531 21.417969 C 2.644531 22.882812 3.828125 24.066406 5.292969 24.066406 L 26.460938 24.066406 C 27.925781 24.066406 29.105469 22.882812 29.105469 21.417969 L 29.105469 5.542969 C 29.105469 4.078125 27.925781 2.894531 26.460938 2.894531 Z M 6.613281 5.542969 L 25.136719 5.542969 C 25.871094 5.542969 26.460938 6.132812 26.460938 6.863281 L 26.460938 20.09375 C 26.460938 20.828125 25.871094 21.417969 25.136719 21.417969 L 6.613281 21.417969 C 5.882812 21.417969 5.292969 20.828125 5.292969 20.09375 L 5.292969 6.863281 C 5.292969 6.132812 5.882812 5.542969 6.613281 5.542969 Z M 6.613281 5.542969 "/>
     <defs>
  <style id="current-color-scheme" type="text/css">
   .ColorScheme-Text { color:#424242; } .ColorScheme-Highlight { color:#eeeeee; }
  </style>
 </defs>
<path style="fill:currentColor" class="ColorScheme-Text" d="M 11.90625 24.726562 L 19.84375 24.726562 L 19.84375 26.050781 L 11.90625 26.050781 Z M 11.90625 24.726562 "/>
     <defs>
  <style id="current-color-scheme" type="text/css">
   .ColorScheme-Text { color:#424242; } .ColorScheme-Highlight { color:#eeeeee; }
  </style>
 </defs>
<path style="fill:currentColor" class="ColorScheme-Text" d="M 13.890625 8.84375 C 13.527344 8.847656 13.230469 9.144531 13.230469 9.511719 L 13.230469 17.449219 C 13.230469 17.984375 13.828125 18.300781 14.269531 18.007812 L 20.222656 14.035156 C 20.621094 13.773438 20.621094 13.1875 20.222656 12.925781 L 14.269531 8.953125 C 14.160156 8.878906 14.027344 8.839844 13.890625 8.84375 Z M 13.890625 8.84375 "/>
</g>
</svg>
